X:1
T:James Gibb editions
T:Tota pulchra es a 4 - Isaac
T:#
%%score [ 1 2 3 4 ]
L:1/8
Q:1/4=108
M:2/2
K:F
V:1 treble nm="Soprano" snm="S"
V:2 treble nm="Alto" snm="A"
V:3 treble-8 nm="Tenor" snm="T"
V:4 bass nm="Bass" snm="B"
V:1
"^Tota pulchra es a 4""^Heinrich Isaac\n(c.1450-1517)" (A6 GF | G2 A4 G2) | A8 | z4 (G4 | F6) G2 | %5
w: To\- * *||ta|pul\-|* chra|
 A8 | z8 | (A6 B2) |[M:2/2] c4 c4 | (d8 | c8 | f8 | e3 d e2 f2- | fedc B4) | c8 | z4 c4 | (A6 B2 | %17
w: es,||a- *|mi- ca|me\-|||||a,|et|ma\- *|
 c4 c4 | (B4 A2 B2- | B2 AG A4 | B8) | z4 G4 | F4 G4 | A8 | z8 | A4 G4) | (F3 G AF) (B2- | %27
w: * cu-|la * *|||non|est in|te;||fa\- *|vus * * * di\-|
 BA A4) G2 | A8 | z8 | z4 (A4 | G4) F4 | (A3 B c2) (d2- | d2 c4 B2) | c8 | z8 | z8 | z2 (f4 ed | %38
w: * * * stil-|lans||la\-|* bi-|a * * tu\-||a;|||mel * *|
 c2) (d4 cB) | A8 | z4 A4 | A4 (A4 | B3 A B2) (A2- | A2 G4 F2) | G4 z4 | (A4 B2 c2- | c2 B4 A2) | %47
w: * et * *|lac|sub|lin- gua|* * * tu\-||a;|o\- * *||
 B4 z2 (B2- | BAGF E4) | F2 (A4 G2- | G2 F2) G4 | z2 (A2 B2) (d2- | d2 c4 B2) | c8 | z8 | d8 | %56
w: dor un\-||guen- to\- *|* * rum|tu\- * o\-||rum||su-|
 (c8 | B8) | z4 (c4 | d8) | (c4 A4) | (B8 | A8) | z4 G4 | A4 F4 | (G8 | F4) z4 | z8 | z2 (F2 A3 B | %69
w: per||om\-||ni\- *|a||a-|ro- ma-|ta:|||iam * *|
 c4 z4 | (c4 d3 e | f4) f4 | z8 | f4 e2) (d2- | d2 c4 B2 | c4) z2 (c2- | c2 BA) G4 | F4 z2 F2 | %78
w: |e\- * *|* nim||hi\- * ems||* tran\-|* * * si-|it, im-|
 (A3 B c2) (d2- | de f3 edc | B2 c4) B2 | c4 z2 c2 | d4 (f4 | e3 d c3 B | A4 B4 | c3 B c2 A2- | %86
w: ber * * ab\-||* * i-|it et|re- ces\-||||
 A2 GF G4) | !fermata!A8 || (A8- | A8 | A8 | B8- | B8 | c8- | c8) | A8 | (B8 | A8) | (G8 | A8) | %100
w: |sit:|Flo\-|||||||res|ap\-||pa\-||
 (B4 c4) | (A4 F4 | G8 | F4) (F4- | F2 ED E4 | F8) | z8 | c4 (d3 e | f4) f4 | z2 (f2 d2) (f2- | %110
w: ru\- *|e\- *||* runt||||vi- ne\- *|* ae|flo\- * ren\-|
 fedc d4) | c8 | z4 G4 | (A2 c4 B2) | c4 z4 | G8 | (A8 | B8) | A8 | z4 z2 (G2- | GABc d3 e | %121
w: |tes|o-|do\- * *|rem|de-|de\-||runt,|et||
 f4) d2 (e2- | e2 d4) c2 | d8- | d8 | z8 | z2 (c4 B2) | (c4 d4 | c3 B AG B2- | BA A4) G2 | A4 z4 | %131
w: * vox tur\-|* * tu-|ris|||au\- *|di\- *||* * * ta|est|
 z8 | z8 | z4 A4 | A4 A4 | (c6 BA | G4 A4 | B4 c2 A2- | A2 GF G4) | F8 | z2 (c4 BA | G3 F G4) | %142
w: ||in|ter- ra|no\- * *||||stra:|sur\- * *||
 F8 | z4 (c4 | B4 G4 | A3 B c2 d2- | d2 c4) B2 | c4 z2 (c2 | B4 G4 | A6 B2 | c2 d4) c2 | d8 | %152
w: ge,|pro\-|||* * pe-|ra, pro\-|||* * pe-|ra|
 z4 d4 | d2 (d4 cB | A2 F2) (B4- | B2 AG A4) | B8 | z4 B4 | B2 (B4 AG | F2 D2) (G4- | G2 FE F4) | %161
w: a-|mi- ca * *|* * me\-||a,|a-|mi- ca * *|* * me\-||
 G4 z4 | G8 | F8 | z4 B4 | c4 B4 | (G8 | F8) | (B6 AG | A2 B4 A2) | B4 z2 B2 | (A3 G AB c2- | %172
w: a:|ve-|ni|de|Li- ba-|no,||ve\- * *||ni, co-|ro\- * * * *|
 c2 BA B4) | (c3 B AG B2- | B2 A4 G2 | A3 G A2 B2- | B2[Q:1/4=106] A4)[Q:1/4=105] G2 | %177
w: |na\- * * * *|||* * be-|
[Q:1/4=102] A8- |[Q:1/4=98] A8 |[Q:1/4=93] A8 |[Q:1/4=92] A8 |] %181
w: ris.||||
V:2
 z8 | z8 | (D6 CB, | C2 D4 C2) | D4 z2 (F2- | F2 ED C3 D) | E4 z2 (G2- | G2 FE) F4 |[M:2/2] (E8 | %9
w: ||To\- * *||ta pul\-||chra, pul\-||chra|
 D8) | G4 z2 (A2- | AGFE) (F2 D2) | G4 z2 (A2 | F2 C2 D4) | (C4 E4 | F8) | z4 F4 | F6 F2 | %18
w: |es, a\-|* * * * mi\- *|ca me\-||a, *||et|ma- cu-|
 (F4 E2 F2- | F2 ED F4) | z2 (D4 E2 | F2) D4 C2 | (D4 G,4) | z8 | z2 (G,2 A,2 B,2- | %25
w: la * *||non *|* est in|te; *||fa\- * *|
 B,A,G,F, G,4) | A,2 (B,2 A,2 D2- | D2 C2) B,4 | A,8 | z8 | z2 G,2 A,2 F,2 | C4 A,4 | z4 z2 (D2 | %33
w: |vus di\- * *|* * stil-|lans||la- bi- a|tu- a,|tu\-|
 E2 F2) G4 | z2 (E3 FGE | F4 B4 | A2) (B4 AG) | (A3 D D4) | z4 z2 B,2 | (C2 DE F4) | z4 z2 F2 | %41
w: * * a;|mel * * *||* et * *|lac, * *|et|lac * * *|sub|
 F4 F4 | D4 D4 | z4 z2 C2 | (D4 E4 | F8- | F8) | z2 (D4 F2- | FE D2) C2 (E2- | E2 D4 C2) | %50
w: lin- gua|tu- a;|o-|dor *|||un\- *|* * * guen- to\-||
 D4 (D3 E | FG A2 D2) (G2- | G2 F2 G4 | E3 F G2 A2- | A2 GF G2 A2) | D4 z2 D2 | E4 z2 (E2 | %57
w: rum tu\- *|* * * * o\-||||rum su-|per om\-|
 F3) (E/F/) G4 | z4 z2 (E2 | F3) (E/F/) G4 | z4 z2 (E2 | F3 E/F/ G4) | (E4 F4) | D4 z2 (D2- | %64
w: * ni\- * a,|om\-|* ni\- * a,|om\-||ni\- *|a a\-|
 DEFG F2 ED | C2) (D4 C2 | D2 F4 E2- | ED D4) ^C2 | D4 z4 | z4 z2 (B,2 | C4) z2 B,2 | %71
w: |* ro\- *||* * * ma-|ta:|iam|* e-|
 C2 (D3 C A,2 | B,3 A, G,2) A,2 | (F,4 G,4 | G2 A2) G4 | (E2 G3 FED | C4) z2 (C2 | A,3 B, C2 D2) | %78
w: nim hi\- * *|* * * ems|tran\- *|* * si-|it, * * * *|* im\-||
 C4 z4 | z2 A4 A2 | G8- | G4 z2 (A2- | AGFE F4 | G4) z2 G2 | (F4 G4 | E4 F4 | D8 | !fermata!D8 || %88
w: ber|ab- i-|it|* et||* re-|ces\- *|||sit:|
 (F6 ED | C2 D4 CB, | CB,A,G, A,4) | G,2 G4 FE) | (D3 C) D4 | (CDEF GA G2 | C2 F4 E2) | F4 z2 F2 | %96
w: Flo\- * *|||res ap\- * *|pa\- * ru-|e\- * * * * * *||runt, ap-|
 G4 (GF_ED) | (C4 z2 C2 | D4 _E4 | C4 z2 (F2 | D4 =E4 | C4) z2 C2 | D4 E4 | D2 C4) B,2 | C8- | C8 | %106
w: pa- ru\- * * *|e\- *|||||||runt||
 z2 (E2 F2 G2 | A4 DEFG) | A2 B4 A2 | (B8- | B8 | G4) C2 G2 | (F4 E2 D2- | D2 C2) D4 | z4 D4 | %115
w: vi\- * *||ne- ae flo-|ren\-||* tes o-|do\- * *|* * rem|de-|
 (E8 | F8 | G8) | (C8 | B,8) | z2 (G,3 A,B,C | D3 E F2) (GF | GFED E4 | D4) z4 | z2 (B,3 CDE | %125
w: de\-|||runt,||et * * *|* * * vox *|||tur\- * * *|
 FG A4 G2- | G2) F2 G4- | G8 | z8 | z2 (F4 E2) | (F4 G4 | F3 E DC E2- | ED D4) ^C2 | D4 z2 D2 | %134
w: |* tu- ris|||au\- *|di\- *||* * * ta|est in|
 D2 D2 (F3 E) | =C4 z4 | z2 E2 E2 F2 | (G4 F4) | D8 | z2 (D2 C2 D2 | E4 E3 D | EC F4 E2) | F8 | %143
w: ter- ra no\- *|stra,|in ter- ra|no\- *|stra:|sur\- * *|||ge,|
 z4 G4 | G4 (G4 | C4 F,2 F2- | FG A2 G4 | E6 F2 | G8) | C8 | z8 | F8 | z4 F4 | F4 F2 (F2- | %154
w: sur-|ge, pro\-|||||pe-||ra|a-|mi- ca me\-|
 F2 ED E4 | F6 ED) | D8 | z4 D4 | D4 D2 (D2- | D2 CB, C4) | D8 | z2 (B,4 A,G, | D8) | D8 | z4 D4 | %165
w: ||a,|a-|mi- ca me\-||a:|ve\- * *||ni|de|
 F4 D4 | (G,8 | A,8) | z8 | (F6 ED | E2 F4 E2) | F4 z2 F2 | (G6 F2) | (E4 F4 | D8 | z2 D2 E2 F2- | %176
w: Li- ba-|no,|||ve\- * *||ni co-|ro\- *|na\- *|||
 F2 E2 F2 E2 | C2 D2 E4 | D2 F4) (ED) | E8- | E8 |] %181
w: ||* * be\- *|ris.||
V:3
 A8 | (B8 | A4) z2 (A2- | A2 GF) G4 | A4 z4 | (A6 B2) | c4 c4 | (d8 |[M:2/2][K:treble-8] c8 | f8 | %10
w: To-|ta|* pul\-|* * * chra|es,|a\- *|mi- ca|me\-|||
 e3 d e2 f2- | fedc B4) | c8 | z8 | z4 c4 | (A6 B2 | c4) c4 | (c8 | d4 c2 d2- | d2 cB c4 | B4) G4 | %21
w: ||a,||et|ma\- *|* cu-|la|||* non|
 F4 G4 | A4 z4 | (d4 c4) | (B3 c d2) (e2- | e2 d4) c2 | d8- | d4 z4 | (d4 c4) | B4 (d3 e | %30
w: est in|te;|fa\- *|vus * * di\-|* * stil-|lans||la\- *|bi- a *|
 f2) (g4 f2- | f2 e2) f4 | z2 (f3 edc | B2 c2 d4) | c4 z4 | d8 | d8 | f8- | f8 | z4 c4 | c4 (c4 | %41
w: * tu\- *|* * a,|tu\- * * *||a;|mel|et|lac||sub|lin- gua|
 d4 c4) | (B6 d2- | d2 cB c4) | (B8 | c4) z2 (c2 | A2 B2 c4 | B8- | B4) G4- | G2 F2 G4 | (A4 B4) | %51
w: |tu\- *||a;|* o\-|||* dor|* un- guen-|to\- *|
 A4 z2 G2 | (c4 d4) | c8- | c8 | z8 | z8 | d8 | (c8 | B8) | z4 (c4 | d8) | (c4 A4) | (B8 | A8) | %65
w: rum tu-|o\- *|rum||||su-|per||om\-||ni\- *|a||
 z4 G4 | (A3 G A2 B2- | BA A4) G2 | A4 z4 | (c4 d3 e) | f4 f4 | z4 (f4 | e2) (d4 c2- | %73
w: a-|ro\- * * *|* * * ma-|ta:|iam * *|e- nim|hi\-|* ems *|
 c2 B2) (c2 d2 | e2 f2) d4 | (c6 d2) | (e2 f4) e2 | f8- | f8 | f8 | d8 | c8 | (B8 | c8) | (d6 c2) | %85
w: * * tran\- *|* * si-|it, *|im\- * ber|ab\-|||i-|it|et||re\- *|
 (A4 c4 | B8 | !fermata!A8 || z8 | z8 | z8 | z8 | z8 | z2 (c4 BA | G3 F G4) | F8 | z8 | z4 F4 | %98
w: ces\- *||sit:||||||Flo\- * *||res||ap-|
 B8 | A8) | G8 | (A8 | B4 c4 | A4 F4) | G8 | F4 z4 | c4 (d3 e | f4) f4 | z4 f4 | f8 | (f8 | e8) | %112
w: pa\-||ru-|e\-|||runt||vi- ne\- *|* ae|flo-|ren-|tes||
 d4 (e2 g2- | g2 f2) g2 G2 | (A2 c4 B2) | c8 | z4 c4 | (d2 f4 e2) | (f8 | d8- | d8) | z8 | z8 | %123
w: o- do\- *|* * rem, o-|do\- * *|rem|de-|de\- * *|runt,|||||
 z2 (G3 ABc | d3 e f4) | d2 (e4 d2- | d2) c2 d4 | z2 (c4 B2) | (c4 d3 c | A2 c2) B4 | A4 z4 | z8 | %132
w: et * * *||vox tur\- *|* tu- ris|au\- *|di\- * *|* * ta|est||
 z8 | A8 | z4 A4 | A4 A4 | (c6 BA | G4 A4 | B8) | A4 z4 | (c8- | c8 | d8 | e8- | e8 | f8) | (d8 | %147
w: |in,|in|ter- ra|no\- * *|||stra:|sur\-||||||ge,|
 c8) | z4 (d4 | f8- | f4) f4 | d8 | z4 d4 | d4 d4 | (c4 B4 | c8 | B8 | z4 B4 | B4 B4 | (A4 G4 | %160
w: |pro\-||* pe-|ra|a-|mi- ca|me\- *||a,|a-|mi- ca|me\- *|
 A8) | G4 z4 | B8 | A8 | z4 G4 | A4 B4 | c8 | d8) | d8 | (c8 | B8) | c4 c4 | (d8 | c4 d4 | B8 | %175
w: |a:|ve-|ni|de|Li- ba-|no,||ve-|ni,||co- ro-|na\-|||
 A3 B c2 d2- | dA c2) B4 | A8- | A8 | A8 | A8 |] %181
w: |* * * be-|ris.||||
V:4
 z8 | z8 | D,8 | (_E,8 | D,8) | z2 (F,4 E,D, | C,3 D, E,4) | D,8 |[M:2/2] (A,3 G, A,B, C2- | %9
w: ||To-|ta||pul\- * *||chra|es, * * * *|
 C2 B,A, B,4) | (C4 A,4 | D8) | (C3 B, A,G, F,2- | F,G, A,2) G,4 | (C,8 | F,8- | F,8 | F,8 | %18
w: |a\- *||mi\- * * * *|* * * ca|me\-||||
 B,,4 z4 | z4 F,4 | (G,6 F,E, | D,2 F,2) E,4 | D,4 z4 | D,4 F,4 | G,4 F,2) (G,2- | G,F,E,D, E,4) | %26
w: a,|non|est * *|* * in|te;|fa- vus|di\- * stil\-||
 D,4 z2 (G,2 | D,2 F,2) G,4 | (D,4 F,4) | (G,2 B,4 A,G, | F,2 E,2 D,2 F,2) | C,4 (D,3 E, | %32
w: lans la\-|* * bi-|a *|tu\- * * *||* a, *|
 F,4) z2 (F,2 | G,2 A,2 G,4) | (C,4 C4) | (B,6 A,G, | F,2) (G,4 F,E,) | (D,2 D4 CB, | %38
w: * tu\-||a; *|mel * *|* et * *|lac * * *|
 A,2 B,4 A,G, | F,8) | z4 F,4 | F,4 (F,4 | G,4 D,2) (F,2 | G,2 B,2) A,4 | (G,8 | F,8- | F,8) | %47
w: ||sub|lin- gua|* * tu\-|* * a;|o\-|||
 B,,8 | z2 B,,2 C,4 | (D,4 _E,4) | D,4 z4 | z2 D,2 (G,4 | A,4 G,4 | C,3 D, E,2 F,2- | %54
w: dor|un- guen-|to\- *|rum|tu- o\-|||
 F,2 E,D, E,2 F,2 | B,,4 B,4) | A,8 | z4 G,4 | A,8 | z4 G,4 | A,8 | z4 G,4 | (A,4 F,4) | G,8 | %64
w: ||rum|su-|per,|su-|per|om-|ni\- *|a|
 D,4 (F,4 | E,8 | D,3 E, F,2 G,2- | G,D, F,2) E,4 | (D,4 D4) | (C4 B,2 A,G, | F,4) B,4 | %71
w: a- ro\-|||* * * ma-|ta: *|iam * * *|* e-|
 A,2 (B,3 A, F,2 | G,3 F, E,2) F,2 | (D,4 C,2 G,2 | C2 F,2) G,4 | (C,8- | C,8 | F,8- | F,8) | %79
w: nim hi\- * *|* * * ems|tran\- * *|* * si-|it,||||
 z4 (F,4 | G,6) F,2 | E,4 F,4 | D,8 | C,8 | z4 G,4 | (A,4 F,4 | G,8 | !fermata!D,8 || (F,8- | F,8 | %90
w: im\-|* ber|ab- i-|it|et|re-|ces\- *||sit:|Flo\-||
 F,8 | G,8- | G,8) | C,8- | C,8 | z4 F,4 | _E,8 | F,8) | z4 _E,4 | (F,8 | G,4 C,4 | F,4 A,4 | %102
w: |||res||ap-|pa\-||ru-|e\-|||
 G,4 C,4 | D,8) | C,8 | z4 (C4 | A,2 C2 B,4) | A,2 F,2 B,4 | (F,8 | B,8- | B,8) | C4 z2 C2 | %112
w: ||runt|vi\-||ne- ae flo-|ren\-|||tes o-|
 (D4 C2 B,2 | A,4 G,4 | F,2 E,2 D,4) | C,4 z2 C,2 | (F,4 A,4 | G,8) | (F,8 | G,8- | G,8 | D,4) z4 | %122
w: do\- * *|||rem de-|de\- *||runt,||||
 z8 | z4 z2 (G,2- | G,A,B,C D4) | B,2 (C2 G,2 B,2 | A,4 G,4) | (C,4 G,4) | C,4 z2 G,2 | %129
w: |et||vox tur\- * *||tu\- *|ris au-|
 (A,2 F,2) G,4 | z2 (F,4 E,2) | (F,4 G,3 F, | D,2 F,2) E,4 | D,8- | D,8 | z8 | z8 | z4 F,4 | G,8 | %139
w: di\- * ta,|au\- *|di\- * *|* * ta|est||||in|ter-|
 D,4 F,4 | C,8- | C,8 | z4 (B,4 | C6 B,A, | G,3 F, G,4 | F,6 D,2- | D,E, F,2 G,4) | C,2 (C4 B,A, | %148
w: ra no-|stra:||sur\-|||||ge, pro\- * *|
 G,3 F, G,4 | F,6 G,2 | A,2 B,4) A,2 | B,8 | z4 B,4 | B,4 B,4 | (F,4 G,4 | F,8 | G,8 | z4 G,4 | %158
w: ||* * pe-|ra|a-|mi- ca|me\- *||a,|a-|
 G,4 G,4 | (D,4 E,4) | D,8 | z8 | G,8 | D,8 | z4 G,4 | F,4 G,4 | E,8 | D,8) | B,,8 | (F,8 | G,8) | %171
w: mi- ca|me\- *|a:||ve-|ni|de|Li- ba-|no,||ve-|ni,||
 F,4 A,4 | (G,8 | A,4 D,4 | G,8 | D,4 z2 B,,2- | B,,2 C,2 D,2 E,2 | F,2 D,4) C,2 | (D,8 | A,8 | %180
w: co- ro-|na\-|||||* * be-|ris.||
 A,,8) |] %181
w: |

